X:92
T:Quadrill from Watson’s Book. CJF.092
R:Quadrille
S:C.J.Fox MS, 1829/33, Beverley,E.Yorks.
B:Kidson Coll.Mitchell Lib.M1805
O:England
A:East Yorkshire
Z:vmp.P J Headford 2000 & 2008
M:6/8
L:1/8
Q:3/8=120
K:D
A|”$”d2f afd|{f/}e2cd2c|B>cd Adf|efg Bec|\
d2f afd|{f/}e2cd2c|B>cd Adf|eBcd2||!
f|e>f^g aee|{^g/}fee eae|e>f^g afe|dcBB2A|\
e>f^g aee|{^g/}fee eae|e>f^g afe|dcBA2″$”||!
f|f>gf f>gf|f^g^ab2f|{a/}g2ec2B|^ABcF2f|\
f>gf f>gf|f^g^ab2=a|gfe dc^A|(” D.C.”c3B2)|]

